!!!COM: Ludwig van Beethoven
!!!CNT: Deutsch
!!!TXO: Deutsch
!!!OTL: "Gottes Macht und Vorsehung"
!!!LYR: Gellert, Christian Fu2rchtegott
!!!OPS: Op. 48
!!!ONM: No. 5
!!!ENC: Amanda Harris
!!!YOR: Sa2mtliche Lieder, Band 1
!!!YOR: G. Henle Verlag
!!!ODT: 1801/
!!NB: Vocal melody and text encoded.
**kern	**silbe
*clefG2	*
*k[]	*
*M2/2	*
*MM[mit kraft und feuer]	*
=1	=1
2r	.
{2cc	{Gott
=2	=2
2b	ist
2g	mein
=3	=3
2.a	Lied!
4b	Er
=4	=4
2.cc	ist
4dd	der
=5	=5
2ee	Gott
2ff#	der
=6	=6
2gg	Sta2r-
4g}	-ke;}
4r	.
=7	=7
4r	.
{4ffn	{hehr
4dd	ist
4b	sein
=8	=8
2.g	Nam',
4f	und
=9	=9
4.e	gross
8dd	sind
4.dd	sei-
8dd	-ne
=10	=10
4dd	Wer-
4cc}	-ke}
4r	.
{4cc	{und
=11	=11
2.ff	al-
4ff	-le
=12	=12
2.ff	Him-
4ee	-mel
=13	=13
2dd	sein
2g	Ge-
=14	=14
2cc}	-biet.}
2r	.
*-	*-
